temp/img/home-services/puzzle.svg

<svg width="128" height="128" viewBox="0 0 128 128" fill="none" xmlns="http://www.w3.org/2000/svg">
<mask id="mask0" mask-type="alpha" maskUnits="userSpaceOnUse" x="0" y="0" width="128" height="128">
<path d="M125.867 21.3334H74.6666C73.4884 21.3334 72.5332 22.2886 72.5332 23.4667V42.6667C72.534 43.8448 73.4901 44.7992 74.6682 44.7984C74.8967 44.7982 75.1239 44.7614 75.3407 44.6891L78.0223 43.7952C80.9338 42.8422 84.0663 44.4299 85.0191 47.3414C85.9719 50.2528 84.3844 53.3854 81.473 54.3382C80.3519 54.7051 79.1431 54.7051 78.022 54.3382L75.3405 53.4443C74.2226 53.072 73.0146 53.6763 72.6423 54.7942C72.57 55.011 72.5332 55.2382 72.533 55.4667V72.5334H55.4663C54.2882 72.5342 53.3338 73.4902 53.3346 74.6683C53.3349 74.8968 53.3716 75.124 53.4439 75.3408L54.3378 78.0224C55.2908 80.9339 53.7031 84.0664 50.7916 85.0192C47.8802 85.9723 44.7477 84.3846 43.7949 81.4731C43.4279 80.352 43.4279 79.1432 43.7949 78.0222L44.6887 75.3406C45.061 74.2227 44.4567 73.0147 43.3389 72.6424C43.122 72.5702 42.8948 72.5334 42.6663 72.5331H23.4666C22.2885 72.5331 21.3333 73.4883 21.3333 74.6664V125.866C21.3333 127.045 22.2885 128 23.4666 128H125.867C127.045 128 128 127.045 128 125.866V23.4667C128 22.2886 127.045 21.3334 125.867 21.3334ZM72.6426 105.994C72.5703 106.211 72.5335 106.438 72.5332 106.667V123.733H25.5999V76.8H39.7077C38.0775 81.9688 40.9463 87.4806 46.1151 89.1104C51.2839 90.7406 56.7956 87.8718 58.4255 82.703C59.0314 80.7819 59.0314 78.7208 58.4255 76.7998H72.5332V93.8664C72.534 95.0446 73.4901 95.999 74.6682 95.9982C74.8967 95.9979 75.1239 95.9611 75.3407 95.8888L78.0223 94.995C80.9338 94.0422 84.0663 95.6296 85.0191 98.5411C85.9719 101.453 84.3844 104.585 81.473 105.538C80.3519 105.905 79.1431 105.905 78.022 105.538L75.3405 104.644C74.2229 104.272 73.0149 104.876 72.6426 105.994ZM123.733 123.733H76.7999V109.626C81.9687 111.256 87.4804 108.387 89.1103 103.218C90.7404 98.0494 87.8716 92.5376 82.7028 90.9078C80.7818 90.3019 78.7207 90.3019 76.7996 90.9078V76.8H93.8663C95.0444 76.7992 95.9988 75.8432 95.998 74.6651C95.9978 74.4366 95.961 74.2094 95.8887 73.9926L94.9948 71.311C94.042 68.3995 95.6295 65.267 98.541 64.3142C101.452 63.3614 104.585 64.9488 105.538 67.8603C105.905 68.9814 105.905 70.1902 105.538 71.3112L104.644 73.9928C104.272 75.1107 104.876 76.3187 105.994 76.691C106.211 76.7632 106.438 76.8 106.666 76.8003H123.733V123.733H123.733ZM123.733 72.5334H109.626C111.256 67.3646 108.387 61.8528 103.218 60.223C98.0492 58.5928 92.5375 61.4616 90.9076 66.6304C90.3018 68.5515 90.3018 70.6126 90.9076 72.5336H76.7999V58.4259C79.7628 59.3862 83.0066 58.868 85.5231 57.0328C89.9354 53.8856 90.961 47.7574 87.8138 43.3451C85.3284 39.8608 80.8716 38.3891 76.7999 39.708V25.6H123.733V72.5334Z" fill="#97D644"/>
<path d="M61.3699 18.3744C59.4488 17.7685 57.3877 17.7685 55.4667 18.3744V2.13333C55.4667 0.9552 54.5115 0 53.3333 0H2.13333C0.9552 0 0 0.9552 0 2.13333V53.3333C0 54.5115 0.9552 55.4667 2.13333 55.4667H18.3744C16.7443 60.6355 19.6131 66.1472 24.7819 67.7771C29.9507 69.4069 35.4624 66.5384 37.0923 61.3696C37.6981 59.4485 37.6981 57.3875 37.0923 55.4664H53.3333C54.5115 55.4664 55.4667 54.5112 55.4667 53.3331V37.092C60.6355 38.7221 66.1472 35.8533 67.7771 30.6845C69.4072 25.516 66.5387 20.0045 61.3699 18.3744ZM60.14 33.0048C59.0189 33.3717 57.8101 33.3717 56.6891 33.0048L54.0075 32.1109C52.8896 31.7387 51.6816 32.3429 51.3093 33.4608C51.2371 33.6776 51.2003 33.9048 51.2 34.1333V51.2H34.1333C32.9552 51.2008 32.0008 52.1568 32.0016 53.3349C32.0019 53.5635 32.0387 53.7907 32.1109 54.0075L33.0048 56.6891C33.9579 59.6005 32.3701 62.7331 29.4587 63.6859C26.5472 64.6387 23.4147 63.0512 22.4619 60.1397C22.0949 59.0187 22.0949 57.8099 22.4619 56.6888L23.3557 54.0072C23.728 52.8893 23.1237 51.6813 22.0059 51.3091C21.7891 51.2368 21.5619 51.2 21.3333 51.1997H4.26667V4.26667H51.2V21.3333C51.2008 22.5115 52.1568 23.4659 53.3349 23.4651C53.5635 23.4648 53.7907 23.428 54.0075 23.3557L56.6891 22.4619C59.6005 21.5091 62.7331 23.0965 63.6859 26.008C64.6389 28.9192 63.0512 32.052 60.14 33.0048Z" fill="#97D644"/>
</mask>
<g mask="url(#mask0)">
<path d="M125.867 21.3334H74.6666C73.4884 21.3334 72.5332 22.2886 72.5332 23.4667V42.6667C72.534 43.8448 73.4901 44.7992 74.6682 44.7984C74.8967 44.7982 75.1239 44.7614 75.3407 44.6891L78.0223 43.7952C80.9338 42.8422 84.0663 44.4299 85.0191 47.3414C85.9719 50.2528 84.3844 53.3854 81.473 54.3382C80.3519 54.7051 79.1431 54.7051 78.022 54.3382L75.3405 53.4443C74.2226 53.072 73.0146 53.6763 72.6423 54.7942C72.57 55.011 72.5332 55.2382 72.533 55.4667V72.5334H55.4663C54.2882 72.5342 53.3338 73.4902 53.3346 74.6683C53.3349 74.8968 53.3716 75.124 53.4439 75.3408L54.3378 78.0224C55.2908 80.9339 53.7031 84.0664 50.7916 85.0192C47.8802 85.9723 44.7477 84.3846 43.7949 81.4731C43.4279 80.352 43.4279 79.1432 43.7949 78.0222L44.6887 75.3406C45.061 74.2227 44.4567 73.0147 43.3389 72.6424C43.122 72.5702 42.8948 72.5334 42.6663 72.5331H23.4666C22.2885 72.5331 21.3333 73.4883 21.3333 74.6664V125.866C21.3333 127.045 22.2885 128 23.4666 128H125.867C127.045 128 128 127.045 128 125.866V23.4667C128 22.2886 127.045 21.3334 125.867 21.3334ZM72.6426 105.994C72.5703 106.211 72.5335 106.438 72.5332 106.667V123.733H25.5999V76.8H39.7077C38.0775 81.9688 40.9463 87.4806 46.1151 89.1104C51.2839 90.7406 56.7956 87.8718 58.4255 82.703C59.0314 80.7819 59.0314 78.7208 58.4255 76.7998H72.5332V93.8664C72.534 95.0446 73.4901 95.999 74.6682 95.9982C74.8967 95.9979 75.1239 95.9611 75.3407 95.8888L78.0223 94.995C80.9338 94.0422 84.0663 95.6296 85.0191 98.5411C85.9719 101.453 84.3844 104.585 81.473 105.538C80.3519 105.905 79.1431 105.905 78.022 105.538L75.3405 104.644C74.2229 104.272 73.0149 104.876 72.6426 105.994ZM123.733 123.733H76.7999V109.626C81.9687 111.256 87.4804 108.387 89.1103 103.218C90.7404 98.0494 87.8716 92.5376 82.7028 90.9078C80.7818 90.3019 78.7207 90.3019 76.7996 90.9078V76.8H93.8663C95.0444 76.7992 95.9988 75.8432 95.998 74.6651C95.9978 74.4366 95.961 74.2094 95.8887 73.9926L94.9948 71.311C94.042 68.3995 95.6295 65.267 98.541 64.3142C101.452 63.3614 104.585 64.9488 105.538 67.8603C105.905 68.9814 105.905 70.1902 105.538 71.3112L104.644 73.9928C104.272 75.1107 104.876 76.3187 105.994 76.691C106.211 76.7632 106.438 76.8 106.666 76.8003H123.733V123.733H123.733ZM123.733 72.5334H109.626C111.256 67.3646 108.387 61.8528 103.218 60.223C98.0492 58.5928 92.5375 61.4616 90.9076 66.6304C90.3018 68.5515 90.3018 70.6126 90.9076 72.5336H76.7999V58.4259C79.7628 59.3862 83.0066 58.868 85.5231 57.0328C89.9354 53.8856 90.961 47.7574 87.8138 43.3451C85.3284 39.8608 80.8716 38.3891 76.7999 39.708V25.6H123.733V72.5334Z" fill="#97D644"/>
<path d="M61.3699 18.3744C59.4488 17.7685 57.3877 17.7685 55.4667 18.3744V2.13333C55.4667 0.9552 54.5115 0 53.3333 0H2.13333C0.9552 0 0 0.9552 0 2.13333V53.3333C0 54.5115 0.9552 55.4667 2.13333 55.4667H18.3744C16.7443 60.6355 19.6131 66.1472 24.7819 67.7771C29.9507 69.4069 35.4624 66.5384 37.0923 61.3696C37.6981 59.4485 37.6981 57.3875 37.0923 55.4664H53.3333C54.5115 55.4664 55.4667 54.5112 55.4667 53.3331V37.092C60.6355 38.7221 66.1472 35.8533 67.7771 30.6845C69.4072 25.516 66.5387 20.0045 61.3699 18.3744ZM60.14 33.0048C59.0189 33.3717 57.8101 33.3717 56.6891 33.0048L54.0075 32.1109C52.8896 31.7387 51.6816 32.3429 51.3093 33.4608C51.2371 33.6776 51.2003 33.9048 51.2 34.1333V51.2H34.1333C32.9552 51.2008 32.0008 52.1568 32.0016 53.3349C32.0019 53.5635 32.0387 53.7907 32.1109 54.0075L33.0048 56.6891C33.9579 59.6005 32.3701 62.7331 29.4587 63.6859C26.5472 64.6387 23.4147 63.0512 22.4619 60.1397C22.0949 59.0187 22.0949 57.8099 22.4619 56.6888L23.3557 54.0072C23.728 52.8893 23.1237 51.6813 22.0059 51.3091C21.7891 51.2368 21.5619 51.2 21.3333 51.1997H4.26667V4.26667H51.2V21.3333C51.2008 22.5115 52.1568 23.4659 53.3349 23.4651C53.5635 23.4648 53.7907 23.428 54.0075 23.3557L56.6891 22.4619C59.6005 21.5091 62.7331 23.0965 63.6859 26.008C64.6389 28.9192 63.0512 32.052 60.14 33.0048Z" fill="#97D644"/>
<rect x="-19.2151" y="-10" width="172.792" height="140.597" rx="25" fill="url(#paint0_linear)"/>
<path fill-rule="evenodd" clip-rule="evenodd" d="M-56.3984 79.2358C-56.3984 79.2358 -35.0384 -35.6096 14.5189 34.6039C54.73 91.5755 59.5074 98.3794 77.9962 87.0078C99.6775 73.6727 103.677 34.6039 114.464 34.6039C125.251 34.6039 141.153 103.006 149.911 91.5755C158.669 80.1454 165.468 45.8044 183.304 45.8044C201.141 45.8044 198.544 88.2166 198.544 88.2166L191.175 137.747L85.2244 130.671L-53.8351 147" fill="url(#paint1_linear)"/>
</g>
<defs>
<linearGradient id="paint0_linear" x1="-19.2151" y1="60.2984" x2="152.596" y2="60.4545" gradientUnits="userSpaceOnUse">
<stop stop-color="#459622"/>
<stop offset="1" stop-color="#B0E94F"/>
</linearGradient>
<linearGradient id="paint1_linear" x1="189.461" y1="50.9252" x2="-40.0964" y2="52.2089" gradientUnits="userSpaceOnUse">
<stop stop-color="#5CA82C"/>
<stop offset="0.0001" stop-color="#68B231"/>
<stop offset="1" stop-color="#A6E24B"/>
</linearGradient>
</defs>
</svg>

<svg width="128" height="128" viewBox="0 0 128 128" fill="none" xmlns="http://www.w3.org/2000/svg"><mask id="a" maskUnits="userSpaceOnUse" x="0" y="0" width="128" height="128"><path d="M125.867 21.333h-51.2a2.133 2.133 0 0 0-2.134 2.134v19.2a2.134 2.134 0 0 0 2.808 2.022l2.681-.894a5.546 5.546 0 1 1 0 10.543l-2.681-.894a2.133 2.133 0 0 0-2.808 2.023v17.066H55.466a2.133 2.133 0 0 0-2.022 2.808l.894 2.681a5.546 5.546 0 1 1-10.543 0l.894-2.681a2.133 2.133 0 0 0-2.023-2.808h-19.2a2.133 2.133 0 0 0-2.133 2.133v51.2c0 1.179.956 2.134 2.134 2.134h102.4a2.133 2.133 0 0 0 2.133-2.134v-102.4a2.133 2.133 0 0 0-2.133-2.133zm-53.224 84.661a2.11 2.11 0 0 0-.11.673v17.066H25.6V76.8h14.108c-1.63 5.169 1.238 10.68 6.407 12.31 5.169 1.63 10.68-1.238 12.31-6.407a9.813 9.813 0 0 0 0-5.903h14.108v17.066a2.134 2.134 0 0 0 2.808 2.023l2.681-.894a5.546 5.546 0 1 1 0 10.543l-2.681-.894a2.133 2.133 0 0 0-2.698 1.35zm51.09 17.739H76.8v-14.107c5.169 1.63 10.68-1.239 12.31-6.408 1.63-5.169-1.238-10.68-6.407-12.31a9.813 9.813 0 0 0-5.903 0V76.8h17.066a2.133 2.133 0 0 0 2.023-2.807l-.894-2.682a5.547 5.547 0 1 1 10.543 0l-.894 2.682a2.134 2.134 0 0 0 2.022 2.807h17.067v46.933zm0-51.2h-14.107c1.63-5.168-1.239-10.68-6.408-12.31a9.814 9.814 0 1 0-12.31 12.31H76.8V58.427a9.72 9.72 0 0 0 8.723-1.393c4.412-3.147 5.438-9.276 2.29-13.688A9.814 9.814 0 0 0 76.8 39.708V25.6h46.933v46.933z" fill="#97D644"/><path d="M61.37 18.374a9.813 9.813 0 0 0-5.903 0V2.134A2.133 2.133 0 0 0 53.333 0h-51.2A2.133 2.133 0 0 0 0 2.133v51.2c0 1.178.955 2.134 2.133 2.134h16.241c-1.63 5.169 1.24 10.68 6.408 12.31a9.814 9.814 0 1 0 12.31-12.31h16.241a2.133 2.133 0 0 0 2.134-2.134V37.092c5.169 1.63 10.68-1.239 12.31-6.407 1.63-5.169-1.238-10.68-6.407-12.31zm-1.23 14.63a5.547 5.547 0 0 1-3.45 0l-2.682-.893a2.133 2.133 0 0 0-2.808 2.022V51.2H34.133a2.133 2.133 0 0 0-2.022 2.807l.894 2.682a5.546 5.546 0 1 1-10.543 0l.894-2.682a2.133 2.133 0 0 0-2.023-2.807H4.267V4.267H51.2v17.066a2.133 2.133 0 0 0 2.807 2.023l2.682-.894a5.547 5.547 0 1 1 3.451 10.543z" fill="#97D644"/></mask><g mask="url(#a)"><path d="M125.867 21.333h-51.2a2.133 2.133 0 0 0-2.134 2.134v19.2a2.134 2.134 0 0 0 2.808 2.022l2.681-.894a5.546 5.546 0 1 1 0 10.543l-2.681-.894a2.133 2.133 0 0 0-2.808 2.023v17.066H55.466a2.133 2.133 0 0 0-2.022 2.808l.894 2.681a5.546 5.546 0 1 1-10.543 0l.894-2.681a2.133 2.133 0 0 0-2.023-2.808h-19.2a2.133 2.133 0 0 0-2.133 2.133v51.2c0 1.179.956 2.134 2.134 2.134h102.4a2.133 2.133 0 0 0 2.133-2.134v-102.4a2.133 2.133 0 0 0-2.133-2.133zm-53.224 84.661a2.11 2.11 0 0 0-.11.673v17.066H25.6V76.8h14.108c-1.63 5.169 1.238 10.68 6.407 12.31 5.169 1.63 10.68-1.238 12.31-6.407a9.813 9.813 0 0 0 0-5.903h14.108v17.066a2.134 2.134 0 0 0 2.808 2.023l2.681-.894a5.546 5.546 0 1 1 0 10.543l-2.681-.894a2.133 2.133 0 0 0-2.698 1.35zm51.09 17.739H76.8v-14.107c5.169 1.63 10.68-1.239 12.31-6.408 1.63-5.169-1.238-10.68-6.407-12.31a9.813 9.813 0 0 0-5.903 0V76.8h17.066a2.133 2.133 0 0 0 2.023-2.807l-.894-2.682a5.547 5.547 0 1 1 10.543 0l-.894 2.682a2.134 2.134 0 0 0 2.022 2.807h17.067v46.933zm0-51.2h-14.107c1.63-5.168-1.239-10.68-6.408-12.31a9.814 9.814 0 1 0-12.31 12.31H76.8V58.427a9.72 9.72 0 0 0 8.723-1.393c4.412-3.147 5.438-9.276 2.29-13.688A9.814 9.814 0 0 0 76.8 39.708V25.6h46.933v46.933z" fill="#97D644"/><path d="M61.37 18.374a9.813 9.813 0 0 0-5.903 0V2.134A2.133 2.133 0 0 0 53.333 0h-51.2A2.133 2.133 0 0 0 0 2.133v51.2c0 1.178.955 2.134 2.133 2.134h16.241c-1.63 5.169 1.24 10.68 6.408 12.31a9.814 9.814 0 1 0 12.31-12.31h16.241a2.133 2.133 0 0 0 2.134-2.134V37.092c5.169 1.63 10.68-1.239 12.31-6.407 1.63-5.169-1.238-10.68-6.407-12.31zm-1.23 14.63a5.547 5.547 0 0 1-3.45 0l-2.682-.893a2.133 2.133 0 0 0-2.808 2.022V51.2H34.133a2.133 2.133 0 0 0-2.022 2.807l.894 2.682a5.546 5.546 0 1 1-10.543 0l.894-2.682a2.133 2.133 0 0 0-2.023-2.807H4.267V4.267H51.2v17.066a2.133 2.133 0 0 0 2.807 2.023l2.682-.894a5.547 5.547 0 1 1 3.451 10.543z" fill="#97D644"/><rect x="-19.215" y="-10" width="172.792" height="140.597" rx="25" fill="url(#paint0_linear)"/><path fill-rule="evenodd" clip-rule="evenodd" d="M-56.398 79.236s21.36-114.846 70.917-44.632C54.73 91.576 59.507 98.379 77.996 87.008c21.681-13.335 25.681-52.404 36.468-52.404 10.787 0 26.689 68.402 35.447 56.972 8.758-11.43 15.557-45.772 33.393-45.772 17.837 0 15.24 42.413 15.24 42.413l-7.369 49.53-105.95-7.076L-53.836 147" fill="url(#paint1_linear)"/></g><defs><linearGradient id="paint0_linear" x1="-19.215" y1="60.298" x2="152.596" y2="60.455" gradientUnits="userSpaceOnUse"><stop stop-color="#459622"/><stop offset="1" stop-color="#B0E94F"/></linearGradient><linearGradient id="paint1_linear" x1="189.461" y1="50.925" x2="-40.096" y2="52.209" gradientUnits="userSpaceOnUse"><stop stop-color="#5CA82C"/><stop offset="0" stop-color="#68B231"/><stop offset="1" stop-color="#A6E24B"/></linearGradient></defs></svg>
